X:1
T:He Is Risen
T:He Is Risen
T:James Holmes Rosecrans
T:Lucinda M. Beal Bateman, 1890
T:Public Domain Courtesy of the Cyber Hymnal™
C:James Holmes Rosecrans
Z:Public Domain
Z:Courtesy of the Cyber Hymnal™
%%score ( 1 2 ) ( 3 4 )
L:1/8
Q:1/4=105
M:4/4
K:F
V:1 treble 
V:2 treble 
V:3 bass 
V:4 bass 
V:1
 [FA]2 [FA]>[FA] [FA]2 [FA]>[FA] | [Fc]4 [FA]2 z2 | [EG]2 [EG]>[FA] [GB]4 | [FA]2 [FA]>[FB] [Fc]4 | %4
w: 1.~Lone in the gar- den they|laid Him,|Low in the tomb,|dark- ness and gloom;|
w: 2.~Wound- ed for sin and trans-|gress- ion,|Bear- ing our pain,|cru- el- ly slain;|
w: 3.~Emp- ty the tomb where they|laid Him,|Brok- en the seal,|bruised but to heal;|
w: 4.~Bright glows the place where they|laid Him,|Make Him your choice,|glad- ly re- joice—|
 [FA]2 [FA]>[FA] [FA]2 [FA]>[FA] | [Fc]4 [FA]2 [FA]2 | [FG]2 [FB]2 [FA]2 [EG]2 | F6 || %8
w: Think of the ones who be-|trayed Him, And|mourn their fear- ful|doom.|
w: Come and make hum- ble con-|fess- ion, Nor|pierce yourd Lord a-|gain.|
w: Sun- dered the bands that de-|layed Him, Go|thou, the truth re-|veal.|
w: Be not as those who be-|trayed Him, O|praise Him heart and|voice.|
"^Refrain" FF | [FB] [FB]3 [Fd] [Fd]3 | [Af] [Fc]3 z2 [FA][FA] | [EG] [EG]3 [G=B]2 [Fd]2 | %12
w: ||||
w: He is|ris- en, ris- en,|ris- en, He is|ris- en from the|
w: ||||
w: ||||
 [Ec]6 [Fc][Fc] | [Ff]2 [Fe]2 [Fd]2 [Fc]2 | (ed)[Fc][EB] [FA]2 [Fd][Fd] | [Fc]2 [Fc]2 [EB]2 [EG]2 | %16
w: ||||
w: dead, He has|burst the gloom of|Cal- * va- ry’s tomb, He is|ris’n, our lov- ing|
w: ||||
w: ||||
 F6 z2 |] %17
w: |
w: Head.|
w: |
w: |
V:2
 x8 | x8 | x8 | x8 | x8 | x8 | x8 | F6 || FF | x8 | x8 | x8 | x8 | x8 | F2 x6 | x8 | F6 x2 |] %17
V:3
 [F,C]2 [F,C]>[F,C] [F,C]2 [F,C]>[F,C] | [F,A,]4 [F,C]2 z2 | [B,,C]2 [B,,C]>[B,,C] [B,,C]4 | %3
 [F,C]2 [F,C]>[F,B,] [F,A,]4 | [F,C]2 [F,C]>[F,C] [F,C]2 [F,C]>[F,C] | [F,A,]4 [F,C]2 [F,C]2 | %6
 [B,,B,]2 [B,,D]2 [C,C]2 [C,B,]2 | [F,A,]6 || [F,A,][F,A,] | [B,,D] [B,,D]3 [B,,B,] [B,,B,]3 | %10
 [F,C] [F,A,]3 z2 [F,C][F,C] | [G,C] [G,C]3 [G,D]2 [G,=B,]2 | [C,C]6 [F,A,][F,A,] | %13
 [F,D]2 [F,C]2 [F,B,]2 [F,A,]2 | (CB,)[C,A,][C,G,] [D,F,]2 [B,,B,][B,,B,] | %15
 [C,A,]2 [C,A,]2 [C,G,]2 [C,B,]2 | [F,A,]6 z2 |] %17
V:4
 x8 | x8 | x8 | x8 | x8 | x8 | x8 | x6 || x2 | x8 | x8 | x8 | x8 | x8 | B,,2 x6 | x8 | x8 |] %17

